public/avatar/hat/59.svg

<svg xmlns:xlink="http://www.w3.org/1999/xlink" height="92.9" width="100.7" xmlns="http://www.w3.org/2000/svg"><use height="22.3" transform="translate(11 41.75)" width="44.6" xlink:href="#a"/><defs><g id="a"><path d="M-27.15 4.05q4.45 2.35 8-1.8l1.4-1.15q3.85-2.05 6.35 1.45.9 5.4-4.75 7.4-5.6 2.05-8.25-.55-2.7-2.6-2.75-5.35" fill="#e3af39" fill-rule="evenodd" transform="translate(27.65 8)"/><path d="M-27.15 4.05q4.45 2.35 8-1.8l1.4-1.15q3.85-2.05 6.35 1.45.9 5.4-4.75 7.4-5.6 2.05-8.25-.55-2.7-2.6-2.75-5.35Z" fill="none" stroke="#9b4a2d" stroke-linecap="round" stroke-linejoin="round" transform="translate(27.65 8)"/><path d="M-8.5 6.35q.55 3.85-3.35 4.55l-1.45-.3q-3-1.55-1.4-4.35 1.85-3.3 4.95-1.1l1.25 1.2" fill="#ff1cdd" fill-rule="evenodd" transform="translate(27.65 8)"/><path d="M-8.5 6.35q.55 3.85-3.35 4.55l-1.45-.3q-3-1.55-1.4-4.35 1.85-3.3 4.95-1.1l1.25 1.2Z" fill="none" stroke="#9f3372" stroke-linecap="round" stroke-linejoin="round" transform="translate(27.65 8)"/><path d="M10.55 6.15 11.9 7.4q1.95 2 2.45 4.75l.1.85q-4.65-.6-7.7-4.15-.5-.55-.3-1.35Q7.7 6.7 9.2 6.45l1.35-.3m-20.6 5.55-1.25.55-2.65 1-.65.2h-.1l-.2.35q-.75-1.1.9-3.85l3.05-4.7q2.7.25 5.05 1.7l1.05 1.1Q-7 10.2-10.05 11.7" fill="#e3af39" fill-rule="evenodd" transform="translate(27.65 8)"/><path d="M10.55 6.15 11.9 7.4q1.95 2 2.45 4.75l.1.85q-4.65-.6-7.7-4.15-.5-.55-.3-1.35Q7.7 6.7 9.2 6.45l1.35-.3m-20.6 5.55-1.25.55-2.65 1-.65.2h-.1l-.2.35q-.75-1.1.9-3.85l3.05-4.7q2.7.25 5.05 1.7l1.05 1.1Q-7 10.2-10.05 11.7" fill="none" stroke="#9b4a2d" stroke-linecap="round" stroke-linejoin="round" transform="translate(27.65 8)"/><path d="M11.05 1.65q3.9 2.3 5.15 4.7l.25 1.1q.2 1.7-2.25 3.05-3.35 1.7-9.05 2.05-5.6.15-17.35-4.95l2.9-.5 3.3-.3 3.55-.45 3.4-.3 3.45-.4L6.75 5q.75-.35 1.7-.55l1.75-.4q.95-.3.85-1.1v-1.3" fill="#18aefe" fill-rule="evenodd" transform="translate(27.65 8)"/><path d="M-12.2 7.6q11.75 5.1 17.35 4.95 5.7-.35 9.05-2.05 2.45-1.35 2.25-3.05l-.25-1.1q-1.25-2.4-5.15-4.7" fill="none" stroke="#0c335a" stroke-linecap="round" stroke-linejoin="round" transform="translate(27.65 8)"/><path d="m-2.15-6.65 1.55-.1q5.3-.2 9.1 3.6 1.45 1.45 2.15 2.9l.25.8.15.4q.4.9.25 2.4l-.4 1.8q-.25.3-4.6 2.05.4-3.55-.7-6L5.35.5 5.3.4 4.2-1.35Q1.5-4.6-2.7-6.6h.15l.3-.05h.1M-7.35 8.9l-2.35-.4-2.8-.55q-1-1.95-.65-4.55l.2-.7q.25-1.45 1.15-3.05 2.2-4.2 6.85-5.7l1.35-.35.05.05Q-7-2-7.9 2.1l-.15.7q-.65 3.2.7 6.1" fill="#003284" fill-rule="evenodd" transform="translate(27.65 8)"/><path d="m6.3 7.2-.5.1-2.45.7q-3.3.85-6.45 1l-4.25-.1Q-8.7 6-8.05 2.8l.15-.7Q-7-2-3.55-6.35l-.05-.05h.05l.85-.2q4.2 2 6.9 5.25L5.3.4l.05.1.25.7q1.1 2.45.7 6" fill="#18aefe" fill-rule="evenodd" transform="translate(27.65 8)"/><path d="m-2.15-6.65 1.55-.1q5.3-.2 9.1 3.6 1.45 1.45 2.15 2.9l.25.8.15.4q.4.9.25 2.4l-.4 1.8q-.25.3-4.6 2.05l-.5.1-2.45.7q-3.3.85-6.45 1l-4.25-.1-2.35-.4-2.8-.55q-1-1.95-.65-4.55l.2-.7q.25-1.45 1.15-3.05 2.2-4.2 6.85-5.7l1.35-.35h.05l.85-.2h.15l.3-.05" fill="none" stroke="#0c335a" stroke-linecap="round" stroke-linejoin="round" transform="translate(27.65 8)"/><path d="M-1.05-6.4q-.6.4-1.55.5L-4.25-6q-.7-.25-.75-.7-.05-.45.55-.8l1.6-.5 1.6.1q.7.25.75.7.05.45-.55.8" fill="#013a58" fill-rule="evenodd" transform="translate(27.65 8)"/></g></defs></svg>

<?xml version="1.0" encoding="UTF-8" standalone="no"?>
<svg xmlns:xlink="http://www.w3.org/1999/xlink" height="92.9px" width="100.7px" xmlns="http://www.w3.org/2000/svg">
  <g transform="matrix(1.0, 0.0, 0.0, 1.0, 38.65, 49.75)">
    <use height="22.3" transform="matrix(1.0, 0.0, 0.0, 1.0, -27.65, -8.0)" width="44.6" xlink:href="#shape0"/>
  </g>
  <defs>
    <g id="shape0" transform="matrix(1.0, 0.0, 0.0, 1.0, 27.65, 8.0)">
      <path d="M-27.15 4.05 Q-22.7 6.4 -19.15 2.25 L-17.75 1.1 Q-13.9 -0.95 -11.4 2.55 -10.5 7.95 -16.15 9.95 -21.75 12.0 -24.4 9.4 -27.1 6.8 -27.15 4.05" fill="#e3af39" fill-rule="evenodd" stroke="none"/>
      <path d="M-27.15 4.05 Q-22.7 6.4 -19.15 2.25 L-17.75 1.1 Q-13.9 -0.95 -11.4 2.55 -10.5 7.95 -16.15 9.95 -21.75 12.0 -24.4 9.4 -27.1 6.8 -27.15 4.05 Z" fill="none" stroke="#9b4a2d" stroke-linecap="round" stroke-linejoin="round" stroke-width="1.0"/>
      <path d="M-8.5 6.35 Q-7.95 10.2 -11.85 10.9 L-13.3 10.6 Q-16.3 9.05 -14.7 6.25 -12.85 2.95 -9.75 5.15 L-8.5 6.35" fill="#ff1cdd" fill-rule="evenodd" stroke="none"/>
      <path d="M-8.5 6.35 Q-7.95 10.2 -11.85 10.9 L-13.3 10.6 Q-16.3 9.05 -14.7 6.25 -12.85 2.95 -9.75 5.15 L-8.5 6.35 Z" fill="none" stroke="#9f3372" stroke-linecap="round" stroke-linejoin="round" stroke-width="1.0"/>
      <path d="M10.55 6.15 L11.9 7.4 Q13.85 9.4 14.35 12.15 L14.45 13.0 Q9.8 12.4 6.75 8.85 6.25 8.3 6.45 7.5 7.7 6.7 9.2 6.45 L10.55 6.15 M-10.05 11.7 L-11.3 12.25 -13.95 13.25 -14.6 13.45 -14.7 13.45 -14.9 13.8 Q-15.65 12.7 -14.0 9.95 L-10.95 5.25 Q-8.25 5.5 -5.9 6.95 L-4.85 8.05 Q-7.0 10.2 -10.05 11.7" fill="#e3af39" fill-rule="evenodd" stroke="none"/>
      <path d="M10.55 6.15 L11.9 7.4 Q13.85 9.4 14.35 12.15 L14.45 13.0 Q9.8 12.4 6.75 8.85 6.25 8.3 6.45 7.5 7.7 6.7 9.2 6.45 L10.55 6.15 M-10.05 11.7 L-11.3 12.25 -13.95 13.25 -14.6 13.45 -14.7 13.45 -14.9 13.8 Q-15.65 12.7 -14.0 9.95 L-10.95 5.25 Q-8.25 5.5 -5.9 6.95 L-4.85 8.05 Q-7.0 10.2 -10.05 11.7" fill="none" stroke="#9b4a2d" stroke-linecap="round" stroke-linejoin="round" stroke-width="1.0"/>
      <path d="M11.05 1.65 Q14.95 3.95 16.2 6.35 L16.45 7.45 Q16.65 9.15 14.2 10.5 10.85 12.2 5.15 12.55 -0.45 12.7 -12.2 7.6 L-9.3 7.1 -6.0 6.8 -2.45 6.35 0.95 6.05 4.4 5.65 6.75 5.0 Q7.5 4.65 8.45 4.45 L10.2 4.05 Q11.15 3.75 11.05 2.95 L11.05 1.65" fill="#18aefe" fill-rule="evenodd" stroke="none"/>
      <path d="M-12.2 7.6 Q-0.45 12.7 5.15 12.55 10.85 12.2 14.2 10.5 16.65 9.15 16.45 7.45 L16.2 6.35 Q14.95 3.95 11.05 1.65" fill="none" stroke="#0c335a" stroke-linecap="round" stroke-linejoin="round" stroke-width="1.0"/>
      <path d="M-2.15 -6.65 L-0.6 -6.75 Q4.7 -6.95 8.5 -3.15 9.95 -1.7 10.65 -0.25 L10.9 0.55 11.05 0.95 Q11.45 1.85 11.3 3.35 L10.9 5.15 Q10.65 5.45 6.3 7.2 6.7 3.65 5.6 1.2 L5.35 0.5 5.3 0.4 4.2 -1.35 Q1.5 -4.6 -2.7 -6.6 L-2.55 -6.6 -2.25 -6.65 -2.15 -6.65 M-7.35 8.9 L-9.7 8.5 -12.5 7.95 Q-13.5 6.0 -13.15 3.4 L-12.95 2.7 Q-12.7 1.25 -11.8 -0.35 -9.6 -4.55 -4.95 -6.05 L-3.6 -6.4 -3.55 -6.35 Q-7.0 -2.0 -7.9 2.1 L-8.05 2.8 Q-8.7 6.0 -7.35 8.9" fill="#003284" fill-rule="evenodd" stroke="none"/>
      <path d="M6.3 7.2 L5.8 7.3 3.35 8.0 Q0.05 8.85 -3.1 9.0 L-7.35 8.9 Q-8.7 6.0 -8.05 2.8 L-7.9 2.1 Q-7.0 -2.0 -3.55 -6.35 L-3.6 -6.4 -3.55 -6.4 -2.7 -6.6 Q1.5 -4.6 4.2 -1.35 L5.3 0.4 5.35 0.5 5.6 1.2 Q6.7 3.65 6.3 7.2" fill="#18aefe" fill-rule="evenodd" stroke="none"/>
      <path d="M-2.15 -6.65 L-0.6 -6.75 Q4.7 -6.95 8.5 -3.15 9.95 -1.7 10.65 -0.25 L10.9 0.55 11.05 0.95 Q11.45 1.85 11.3 3.35 L10.9 5.15 Q10.65 5.45 6.3 7.2 L5.8 7.3 3.35 8.0 Q0.05 8.85 -3.1 9.0 L-7.35 8.9 -9.7 8.5 -12.5 7.95 Q-13.5 6.0 -13.15 3.4 L-12.95 2.7 Q-12.7 1.25 -11.8 -0.35 -9.6 -4.55 -4.95 -6.05 L-3.6 -6.4 -3.55 -6.4 -2.7 -6.6 -2.55 -6.6 -2.25 -6.65" fill="none" stroke="#0c335a" stroke-linecap="round" stroke-linejoin="round" stroke-width="1.0"/>
      <path d="M-1.05 -6.4 Q-1.65 -6.0 -2.6 -5.9 L-4.25 -6.0 Q-4.95 -6.25 -5.0 -6.7 -5.05 -7.15 -4.45 -7.5 L-2.85 -8.0 -1.25 -7.9 Q-0.55 -7.65 -0.5 -7.2 -0.45 -6.75 -1.05 -6.4" fill="#013a58" fill-rule="evenodd" stroke="none"/>
    </g>
  </defs>
</svg>
